**kern
*part1
*staff1
*clefG2
*k[b-]
*M2/4
*>A
8d
=1
4g
8b-L
8ddJ
=2
(>16ddLL
16cc#X)
(>16cc#
16b-JJ)
4dd
=3
16cc#XLL
16dd
16ee
16ddJJ
16cc#LL
16b-
16a
16gJJ
=4
8cc#XL
(>8qee/
8ddJ)
16cc#LL
16b-
16a
16gJJ
=5
4g
8b-L
8ddJ
=6
(>16ddLL
16cc#X)
(>16cc#
16b-JJ)
4dd
=7
(>16cc#XLL
16dd
16ee
16ddJJ
16cc#LL
16b-
16a
16gJJ)
=8
(<16aLL
16b-J
8gJ)
8r
=9:|!
(<16aLL
16b-J
8gJ)
!LO:TX:B:t=Fine
4r
=10||
*>B
4.gg
8dd
=11
4.gg
8dd
=12
8ggL
8ddJ
8ggL
8ddJ
=13
4.gg
8gg
=14
16ggLL
16ff
16ee
16ddJJ
16ffLL
16ee
16dd
16cc#XJJ
=15
16eeLL
16dd
16cc#X
16b-JJ
16cc#LL
16b-
16a
16gJJ
=16
8b-L
8ddJ
8cc#XL
8eeJ
=17
4dd
4gg
=18
16ggLL
16ff
16ee
16ddJJ
16ffLL
16ee
16dd
16cc#XJJ
=19
16eeLL
16dd
16cc#X
16b-JJ
16cc#LL
16b-
16a
16gJJ
=20
8b-L
8ddJ
8cc#XL
(>8qee/
8ddJ)
=21
4g
4r
=22||
*>C
*k[f#]
4.bn
8dd
=23
(>16ddLL
16cc)
(>16cc
16bJJ)
4dd
=24
4.b
8dd
=25
(>16ddLL
16cc)
(>16cc
16bJJ)
8bL
16aL
16gJJ
=26
4.b
8dd
=27
(>16ddLL
16cc)
(>16cc
16bJJ)
4dd
=28
16cc#XLL
16dd
16ee
16ddJJ
16cc#LL
16b-X
16a
16gJJ
=29
(<16aLL
16b-XJ)
8gJ
!LO:TX:B:t=D.C. al Fine
8r
==
*-
!!!RDF**kern: > = above
!!!RDF**kern: < = below
